X:1
T:Title
%%score { ( 1 4 ) | ( 2 3 ) }
L:1/8
M:4/4
K:Bb
V:1 treble nm="Grand Piano"
V:4 treble 
V:2 bass 
V:3 bass 
V:1
 z4 z2[Q:1/4=100] [DB]2 | A3 G F2 e2 | d2 c2 B2 [FA]2 | G3 c B2 G2 | [B,DF]6 [DFB]2 | A3 c B2 d2 | %6
 c3 e d2 [DFB]2 | [CFc]3 [DGB] [CFA]2 [B,=EG]2 |[M:3/4] [A,F]6 |[M:1/4] [CE]2 | %10
[M:4/4][K:bass] [F,B,D]3 [F,CE][K:treble] [DF]2 [DB]2 | d3 c B2 [_Ad]2 | [Ge]3 G [Gd]2 [Gc]2 | %13
 B4 A2 c2 | d>c [DFB]2 [Ec]>B [CFA]2 | [B,FB]2 [B,EG]2 [B,DF]2 [Fe]2 | [Fd]3 c B2 [CA]2 | %17
[M:3/4] [DB]6 |] %18
V:2
 z4 z2 [B,,B,]2 | [F,CE]3 [F,B,E] [F,A,E]2[K:treble] [A,CF]2 | %2
 [B,F]2[K:bass] [F,A,E]2 [G,B,D]2 [D,B,]2 | [E,B,E]3 [E,G,E] [E,G,E]2 [E,B,E]2 | B,,6 B,,2 | %5
 [F,CE]3 [F,A,E][K:treble] [G,B,D]2 [B,F]2 | [A,CF]3 [A,CF] [B,F]2[K:bass] B,,2 | %7
 A,,3 B,, C,2 C,2 |[M:3/4] F,6 |[M:1/4] F,2 |[M:4/4] B,,3 B,, [B,,B,]2 [B,,B,]2 | %11
 [B,F]3 [F,A,E] [G,B,D]2 [F,B,]2 | [E,B,]3 [E,E] [E,E]2 [E,E]2 | D4 z4 | B,2 z2 F,2 z2 | %15
 z z/ A/ E,2 B,,2 [C,A,]2 | [D,B,]3 [E,G,E] [F,D]2 [F,,F,]2 |[M:3/4] [B,,F,]6 |] %18
V:3
 x8 | x6[K:treble] x2 | x2[K:bass] x6 | x8 | x8 | x4[K:treble] x4 | x6[K:bass] x2 | x8 | %8
[M:3/4] x6 |[M:1/4] x2 |[M:4/4] x8 | x8 | x8 | [F,F]4- [F,CF]2 [F,A,F]2 | %14
 B,,->[B,,E] B,,2 z z/ D/ F,2 | D,2 z2 z4 | x8 |[M:3/4] x6 |] %18
V:4
 x8 | x8 | x8 | x8 | x8 | x8 | x8 | x8 |[M:3/4] x6 |[M:1/4] x2 |[M:4/4][K:bass] x4[K:treble] x4 | %11
 x8 | x8 | x8 | F2 z2 F2 z2 | x8 | x8 |[M:3/4] x6 |] %18

